Enavato/img/t.svg

<svg xmlns="http://www.w3.org/2000/svg" width="33" height="33" viewBox="0 0 33 33"><filter filterUnits="objectBoundingBox" x="-3.23" y="-3.23" width="106.45" height="109.68" id="a"><feGaussianBlur in="SourceAlpha" stdDeviation=".5" result="dsBlurOut1"/><feFlood flood-color="#000" flood-opacity=".25" result="dsFloodOut1"/><feComposite in="dsFloodOut1" in2="dsBlurOut1" operator="in" result="dsShadow1"/><feOffset in="dsShadow1" dy="1" result="dsOffset1"/><feComposite in="dsOffset1" in2="SourceAlpha" operator="out" result="dropShadow1"/><feBlend in="dropShadow1" in2="SourceGraphic" result="sourceGraphic"/></filter><path d="M16.54 30.75c-8.48 0-15.35-6.88-15.35-15.37C1.19 6.89 8.06 0 16.54 0s15.35 6.89 15.35 15.38c0 8.49-6.87 15.37-15.35 15.37zm8.16-16.89c-1.19-4.14-4.04-4.14-4.04-4.14s1.21-.69 1.18-1.1c-.37-.27-1.12.26-1.18.26.19-.13.07-.51-.17-.65-.36.04-.68.7-.68.7s-.17-.33-.33-.33c-1.91.53-3.25 4.94-3.25 4.94-6.22-4.21-6.64-3.4-6.64-3.39-.48 1.1 1.41 2.48 1.41 2.48l-.54.02s-.8-.03-.62.54c.17.73 1.12 1.48 1.13 1.49.46.22 1.04.01 1.04.01s-.61.33-1 .57c-.65.42-.18.78-.11.85.83.9 2.15.84 2.15.84s-.61.74-.62 1.02c0 .45.41.73.44.76.37.25.91.28.91.28-3.37 3.58-7.43-.02-7.43-.03.45 2.62 4.3 5.15 11.07 4.17 5.49-.88 7.24-6.9 7.24-6.9s2.27.13 2.53-1.22c-.71.13-1.74-.08-1.74-.08s1.75-.76 1.83-1.67c-1.02.8-2.55.58-2.58.58z" fill="#FFF" filter="url(#a)"/></svg>

<?xml version="1.0" encoding="utf-8"?>
<svg xmlns="http://www.w3.org/2000/svg"
	xmlns:xlink="http://www.w3.org/1999/xlink"
	width="33px" height="33px" viewBox="0 0 33 33">
<filter filterUnits="objectBoundingBox" x="-3.23" y="-3.23" width="106.45" height="109.68" id="filter0">
<feGaussianBlur in="SourceAlpha" stdDeviation="0.50" result="dsBlurOut1"/>
<feFlood flood-color="rgb(0,0,0)" flood-opacity="0.25" result="dsFloodOut1"/>
<feComposite in="dsFloodOut1" in2="dsBlurOut1" operator="in" result="dsShadow1"/>
<feOffset in="dsShadow1" dx="-0.00" dy="1.00" result="dsOffset1"/>
<feComposite in="dsOffset1" in2="SourceAlpha" operator="out" result="dropShadow1"/>
<feBlend in="dropShadow1" in2="SourceGraphic" mode="normal" result="sourceGraphic"/>
</filter>
<path fillRule="evenodd" d="M 16.54 30.75C 8.06 30.75 1.19 23.87 1.19 15.38 1.19 6.89 8.06 0 16.54 0 25.02 0 31.89 6.89 31.89 15.38 31.89 23.87 25.02 30.75 16.54 30.75ZM 24.7 13.86C 23.51 9.72 20.66 9.72 20.66 9.72 20.66 9.72 21.87 9.03 21.84 8.62 21.47 8.35 20.72 8.88 20.66 8.88 20.85 8.75 20.73 8.37 20.49 8.23 20.13 8.27 19.81 8.93 19.81 8.93 19.81 8.93 19.64 8.6 19.48 8.6 17.57 9.13 16.23 13.54 16.23 13.54 10.01 9.33 9.59 10.14 9.59 10.15 9.11 11.25 11 12.63 11 12.63 11 12.63 10.46 12.65 10.46 12.65 10.46 12.65 9.66 12.62 9.84 13.19 10.01 13.92 10.96 14.67 10.97 14.68 11.43 14.9 12.01 14.69 12.01 14.69 12.01 14.69 11.4 15.02 11.01 15.26 10.36 15.68 10.83 16.04 10.9 16.11 11.73 17.01 13.05 16.95 13.05 16.95 13.05 16.95 12.44 17.69 12.43 17.97 12.43 18.42 12.84 18.7 12.87 18.73 13.24 18.98 13.78 19.01 13.78 19.01 10.41 22.59 6.35 18.99 6.35 18.98 6.8 21.6 10.65 24.13 17.42 23.15 22.91 22.27 24.66 16.25 24.66 16.25 24.66 16.25 26.93 16.38 27.19 15.03 26.48 15.16 25.45 14.95 25.45 14.95 25.45 14.95 27.2 14.19 27.28 13.28 26.26 14.08 24.73 13.86 24.7 13.86Z" fill="rgb(255,255,255)" filter="url(#filter0)"/></svg>
